X:1
T:C minor Oliver Holden, 1792
T:Isaac Watts, 1706 ( The Song of Angels Above ) 86. 86. (C. M.) 
T:Lamentation No copyright. Treble-Tenor-Bass from The Union Harmony , 1793; Edited and Counter written by B. C. Johnston, 2015..
%%score [ 1 2 3 4 ]
L:1/8
M:4/4
K:Eb
V:1 treble nm="Treble" snm="Tr."
V:2 treble nm="Counter" snm="C."
V:3 treble-8 nm="Tenor" snm="T."
V:4 bass nm="Bass" snm="B."
V:1
 c2 ed | e2 c2 d2 e2 | B4 e4 | e2 B2 B2 B2 | G4 z2 G2 |: c4 z2 G2 | B4 z2 G2 | G4 z2 c2 | =B4 d4 | %9
 e>f g2 f2 f2 | g2 e2 B2 B2 | d>e f2 g2 G2 | G4 z2 G2 :| G8 |] %14
V:2
 E2 GG | G2 G2 F2 G2 | G4 A4 | E>F G2 F2 G2 | E4 z2 E2 |: E4 z2 G2 | F4 z2 G2 | c4 z2 c2 | G4 =B4 | %9
 c>A G2 A2 F2 | E2 G2 G2 G2 | =B2 A2 G2 G2 | E4 z2 E2 :| E8 |] %14
V:3
 G2 c=B | c2 e2 d2 c2 | d4 c4 | c>d e2 dc d2 | c4 z2 e2 |: g4 z2 e2 | f4 z2 d2 | e4 z2 c2 | %8
w: 1.~Earth has de-|tained me pris- oner|long, And|I've * grown wea- * ry|now. My|heart, my|hand, my|ear, my|
 d4 =B4 | c>d e2 dc B2 | G2 c2 g2 e2 | f/g/f/e/ d2 ec d/e/d | c4 z2 e2 :| c8 |] %14
w: tongue, There's|no- * thing here * for|you, There's no- thing,|No- * * * thing here * for * *|you. My|you.|
V:4
 C,2 C,G,, | C,2 C,2 =B,,2 C,2 | G,4 A,4 | G,2 E,2 F,2 G,2 | C,4 z2 C,2 |: C,4 z2 C,2 | %6
 B,,4 z2 B,,2 | E,4 z2 B,,2 | G,4 G,4 | E,>D, C,2 D,2 D,2 | G,2 G,2 E,2 E,2 | D,2 D,2 C,2 G,,2 | %12
 C,4 z2 C,2 :| C,8 |] %14

